X: 10512
T: Doom
R: waltz
M: 3/4
K: Bminor
f3 e df|ec Ac BA|GB dF Bd|Ac eA ab|
f3 e df|ec Ac BA|GF Ee fd|B2 gf eg:|
dB fe dc|A3 G AB|=c3 B Ac|BG E2 de|
fB gB ab|f2[f,4d4]|ed ce fd|B6:|

